src/Assets/cancelRight.svg

<svg width="33" height="32" viewBox="0 0 33 32" fill="none" xmlns="http://www.w3.org/2000/svg">
<path d="M32.5 16C32.5 7.16344 25.3366 0 16.5 0C7.66344 0 0.5 7.16344 0.5 16C0.5 24.8366 7.66344 32 16.5 32C25.3366 32 32.5 24.8366 32.5 16Z" fill="white"/>
<path d="M18.3792 11.315C18.4555 11.2381 18.5463 11.177 18.6463 11.1354C18.7463 11.0937 18.8535 11.0723 18.9618 11.0723C19.0701 11.0723 19.1774 11.0937 19.2774 11.1354C19.3774 11.177 19.4681 11.2381 19.5444 11.315L23.6469 15.4175C23.7238 15.4938 23.7849 15.5846 23.8265 15.6846C23.8682 15.7845 23.8896 15.8918 23.8896 16.0001C23.8896 16.1084 23.8682 16.2157 23.8265 16.3157C23.7849 16.4156 23.7238 16.5064 23.6469 16.5827L19.5444 20.6852C19.4681 20.7621 19.3774 20.8232 19.2774 20.8648C19.1774 20.9065 19.0701 20.9279 18.9618 20.9279C18.8535 20.9279 18.7463 20.9065 18.6463 20.8648C18.5463 20.8232 18.4555 20.7621 18.3792 20.6852C18.3023 20.609 18.2413 20.5182 18.1996 20.4182C18.158 20.3182 18.1365 20.211 18.1365 20.1027C18.1365 19.9943 18.158 19.8871 18.1996 19.7871C18.2413 19.6871 18.3023 19.5964 18.3792 19.5201L21.9075 16.0001L18.3792 12.4801C18.3023 12.4038 18.2413 12.3131 18.1996 12.2131C18.158 12.1131 18.1365 12.0059 18.1365 11.8975C18.1365 11.7892 18.158 11.682 18.1996 11.582C18.2413 11.482 18.3023 11.3912 18.3792 11.315Z" fill="#2F32DE"/>
<path d="M12.221 11.3199C12.2973 11.2429 12.3881 11.1819 12.4881 11.1403C12.588 11.0986 12.6953 11.0771 12.8036 11.0771C12.9119 11.0771 13.0192 11.0986 13.1192 11.1403C13.2191 11.1819 13.3099 11.2429 13.3862 11.3199L17.4887 15.4224C17.5656 15.4987 17.6267 15.5894 17.6683 15.6894C17.71 15.7894 17.7314 15.8967 17.7314 16.005C17.7314 16.1133 17.71 16.2205 17.6683 16.3205C17.6267 16.4205 17.5656 16.5113 17.4887 16.5875L13.3862 20.6901C13.3099 20.767 13.2191 20.8281 13.1192 20.8697C13.0192 20.9114 12.9119 20.9328 12.8036 20.9328C12.6953 20.9328 12.588 20.9114 12.4881 20.8697C12.3881 20.8281 12.2973 20.767 12.221 20.6901C12.1441 20.6138 12.0831 20.5231 12.0414 20.4231C11.9998 20.3231 11.9783 20.2159 11.9783 20.1075C11.9783 19.9992 11.9998 19.892 12.0414 19.792C12.0831 19.692 12.1441 19.6013 12.221 19.525L15.7493 16.005L12.221 12.485C12.1441 12.4087 12.0831 12.318 12.0414 12.218C11.9998 12.118 11.9783 12.0107 11.9783 11.9024C11.9783 11.7941 11.9998 11.6869 12.0414 11.5869C12.0831 11.4869 12.1441 11.3961 12.221 11.3199Z" fill="#2F32DE"/>
</svg>

<svg xmlns="http://www.w3.org/2000/svg" width="33" height="32" fill="none"><path fill="#fff" d="M32.5 16c0-8.837-7.163-16-16-16S.5 7.163.5 16s7.163 16 16 16 16-7.163 16-16"/><path fill="#2F32DE" d="M18.38 11.315a.82.82 0 0 1 1.164 0l4.103 4.103a.82.82 0 0 1 0 1.165l-4.103 4.102a.82.82 0 0 1-1.165 0 .82.82 0 0 1 0-1.165L21.907 16l-3.528-3.52a.82.82 0 0 1 0-1.165M12.221 11.32a.82.82 0 0 1 1.165 0l4.103 4.102a.82.82 0 0 1 0 1.165l-4.103 4.103a.82.82 0 0 1-1.345-.267.82.82 0 0 1 .18-.898l3.528-3.52-3.528-3.52a.82.82 0 0 1 0-1.165"/></svg>
